svg/fluentui-system-icons/ic_fluent_people_swap_20_filled.svg

<svg width="20" height="20" viewBox="0 0 20 20" fill="none" xmlns="http://www.w3.org/2000/svg">
<path d="M10 6.75C10 8.54493 8.54493 10 6.75 10C4.95507 10 3.5 8.54493 3.5 6.75C3.5 4.95507 4.95507 3.5 6.75 3.5C8.54493 3.5 10 4.95507 10 6.75ZM11.3523 11.5264L9.43934 13.4393C8.85355 14.0251 8.85355 14.9749 9.43934 15.5607L10.0861 16.2074C9.32081 16.6737 8.24957 17 6.75 17C1.5 17 1.5 13 1.5 13C1.5 11.8954 2.39543 11 3.5 11H10C10.5214 11 10.9962 11.1995 11.3523 11.5264ZM14.5 10C15.8807 10 17 8.88071 17 7.5C17 6.11929 15.8807 5 14.5 5C13.1193 5 12 6.11929 12 7.5C12 8.88071 13.1193 10 14.5 10ZM12.8536 12.8536C13.0488 12.6583 13.0488 12.3417 12.8536 12.1464C12.6583 11.9512 12.3417 11.9512 12.1464 12.1464L10.1464 14.1464C9.95118 14.3417 9.95118 14.6583 10.1464 14.8536L12.1464 16.8536C12.3417 17.0488 12.6583 17.0488 12.8536 16.8536C13.0488 16.6583 13.0488 16.3417 12.8536 16.1464L11.7071 15H17.2929L16.1464 16.1464C15.9512 16.3417 15.9512 16.6583 16.1464 16.8536C16.3417 17.0488 16.6583 17.0488 16.8536 16.8536L18.8536 14.8536C19.0488 14.6583 19.0488 14.3417 18.8536 14.1464L16.8536 12.1464C16.6583 11.9512 16.3417 11.9512 16.1464 12.1464C15.9512 12.3417 15.9512 12.6583 16.1464 12.8536L17.2929 14H11.7071L12.8536 12.8536Z" fill="#212121"/>
</svg>

<svg xmlns="http://www.w3.org/2000/svg" width="20" height="20"><path d="M10 6.75a3.25 3.25 0 1 1-6.5 0 3.25 3.25 0 0 1 6.5 0Zm1.352 4.776L9.44 13.44a1.5 1.5 0 0 0 0 2.122l.647.646C9.321 16.674 8.25 17 6.75 17 1.5 17 1.5 13 1.5 13a2 2 0 0 1 2-2H10c.521 0 .996.2 1.352.526ZM14.5 10a2.5 2.5 0 1 0 0-5 2.5 2.5 0 0 0 0 5Zm-1.646 2.854a.5.5 0 0 0-.708-.708l-2 2a.5.5 0 0 0 0 .708l2 2a.5.5 0 0 0 .708-.708L11.707 15h5.586l-1.147 1.146a.5.5 0 0 0 .708.708l2-2a.5.5 0 0 0 0-.708l-2-2a.5.5 0 0 0-.708.708L17.293 14h-5.586l1.147-1.146Z"/></svg>
